!!!COM: Palestrina, Giovanni Perluigi da
!!!OPR: Panis quem ego dabo
!!!OTL: Gloria
**kern	**kern	**kern	**kern
*Ibass	*Itenor	*Icalto	*Icant
!Bassus	!Tenor	!Altus	!Cantus
*clefF4	*clefGv2	*clefG2	*clefG2
*k[]	*k[]	*k[]	*k[]
*D:dor	*D:dor	*D:dor	*D:dor
*M4/2	*M4/2	*M4/2	*M4/2
=1	=1	=1	=1
0r	0r	0r	1.g
.	.	.	2g
=2	=2	=2	=2
0r	1.G	1r	2.b
.	.	.	4cc
.	.	[1g	4dd
.	.	.	4ee
.	2G	.	[2dd
=3	=3	=3	=3
0r	2B	2g]	2dd]
.	2c	2g	4cc
.	.	.	4b
.	2.d	2f	2a
.	.	2d	2a
.	4c	.	.
=4	=4	=4	=4
0r	4B	1g	1b
.	4A	.	.
.	2G	.	.
.	2d	2f#	2a
.	[2G	[2g	[2b
=5	=5	=5	=5
0r	4G]	4g]	4b]
.	4A	4f	4cc
.	2B	4e	1dd
.	.	4d	.
.	1A	2e	.
.	.	2e	2cc#
=6	=6	=6	=6
1.G	1B	0d	2.dd
.	.	.	4cc
.	2r	.	1b
2G	[2d	.	.
=7	=7	=7	=7
2F	2d]	1r	1a
2D	2d	.	.
1G	2B	[1d	1r
.	2G	.	.
=8	=8	=8	=8
2F#	2A	2d]	0r
2.G	2.B	2d	.
.	.	2B	.
4F	4c	.	.
4E	[2d	2G	.
4D	.	.	.
=9	=9	=9	=9
1E	2d]	1g	1r
.	2c#	.	.
1D	2.d	2f	2r
.	.	2d	2dd
.	8c	.	.
.	8B	.	.
=10	=10	=10	=10
0r	1A	2e	2cc
.	.	2.f	2a
.	1r	.	2.cc
.	.	4e	.
.	.	4c	.
.	.	4d	4b
=11	=11	=11	=11
1r	0r	4e	4g
.	.	4f	4a
.	.	1g	2b
[1d	.	.	[1a
.	.	4f	.
.	.	4e	.
=12	=12	=12	=12
2d]	2r	1f	1a]
2d	1a	.	.
2c	.	[1e	1r
2A	2a	.	.
=13	=13	=13	=13
2.c	2g	1e]	0r
.	2e	.	.
8B	.	.	.
8A	.	.	.
2G	2.g	1r	.
2B	.	.	.
.	4f	.	.
=14	=14	=14	=14
2c	2e	1.g	0r
1d	2d	.	.
.	1e	.	.
2c	.	2g	.
=15	=15	=15	=15
1d	1d	2f	2r
.	.	2d	1dd
2D	2r	2.f	.
2D	[2f	.	2dd
.	.	4g	.
=16	=16	=16	=16
2.F	2f]	0a	2cc
.	2f	.	2a
4G	.	.	.
2A	2e	.	2.cc
2A	2c	.	.
.	.	.	4b
=17	=17	=17	=17
2.c	2.e	1r	2.g
8B	4f	.	4a
8A	.	.	.
1G	4g	2r	4b
.	4f	.	4cc
.	4e	2g	[2dd
.	4d	.	.
=18	=18	=18	=18
1r	1e	2g	2dd]
.	.	2g	2cc#
2r	1d	2f	1dd
2d	.	2d	.
=19	=19	=19	=19
2d	0r	2.f	2r
2d	.	.	2a
.	.	8e	.
.	.	8d	.
2c	.	2e	2a
2A	.	2f	2a
=20	=20	=20	=20
2.c	2r	2.e	2g
.	2g	.	4e
8B	.	8d	4f
8A	.	8c	.
1G	2g	1B	4g
.	.	.	4a
.	2g	.	4b
.	.	.	4cc
=21	=21	=21	=21
1D	2f	1A	2.dd
.	2d	.	.
.	.	.	8cc
.	.	.	8b
4D	2.f	2r	2.a
4E	.	.	.
4F	.	2a	.
4G	4e	.	4b
=22	=22	=22	=22
2A	2.c	2a	4cc
.	.	.	4dd
2A	.	2a	4ee
.	4d	.	4ff
2.c	4e	2g	4ee
.	4f	.	4cc
.	[2g	2e	[2ee
8B	.	.	.
8A	.	.	.
=23	=23	=23	=23
2G	4g]	1g	4ee]
.	4f	.	4dd
2B-	4e	.	1dd
.	4d	.	.
1A	1e	2.a	.
.	.	.	2cc#
.	.	4g	.
=24	=24	=24	=24
2D	1d	4f	0dd
.	.	4e	.
2.G	.	4d	.
.	.	4c	.
.	2r	2.B	.
4G	.	.	.
2G	[2d	.	.
.	.	4A	.
=25	=25	=25	=25
4B	4d]	1G	1r
4c	4d	.	.
4d	2d	.	.
4B	.	.	.
2c	2e	1r	2r
2B	2d	.	[2g
=26	=26	=26	=26
1c	2e	2r	4g]
.	.	.	4g
.	2.g	2.c	2g
1A	.	.	2a
.	8f	4c	.
.	8e	.	.
.	2f	2c	2a
=27	=27	=27	=27
1G	1g	2d	4b
.	.	.	4cc
.	.	2d	4dd
.	.	.	4b
1r	1c	4e	4cc
.	.	4f	4dd
.	.	4g	2ee
.	.	4e	.
=28	=28	=28	=28
0r	2r	4f	2dd
.	.	4g	.
.	2A	2.a	2.cc
.	2B	.	.
.	.	4g	4b
.	2G	[2g	4b
.	.	.	8a
.	.	.	8g
=29	=29	=29	=29
2r	2.d	2g]	1a
2D	.	2f	.
.	4c	.	.
2E	2B	1e	[1g
2C	[2c	.	.
=30	=30	=30	=30
2.G	2c]	1d	1g]
.	2B	.	.
4A	.	.	.
2B	2d	1r	2r
[2c	[2e	.	2g
=31	=31	=31	=31
4c]	2e]	2r	2a
4c	.	.	.
2B	2d	2d	2g
1A	1c	2e	2cc
.	.	2c	[2cc
=32	=32	=32	=32
1G	2d	2.g	2cc]
.	2.e	.	2b
.	.	4a	.
1r	.	2b	2g
.	4d	.	.
.	4c	[2cc	[2a
.	4B	.	.
=33	=33	=33	=33
1r	2A	4cc]	2a]
.	.	4cc	.
.	2B	2b	1g
2r	[1d	[1a	.
[2D	.	.	4f#
.	.	.	4e
=34	=34	=34	=34
4D]	1d]	1a]	1f#
4D	.	.	.
2D	.	.	.
1G	2r	1g	4g
.	.	.	4a
.	[2d	.	4b
.	.	.	4cc
=35	=35	=35	=35
2F#	4d]	0r	4dd
.	4d	.	4cc
2.G	2d	.	4b
.	.	.	4a
.	1g	.	1b
4A	.	.	.
4B	.	.	.
4c	.	.	.
=36	=36	=36	=36
2d	2f#	2r	0r
4G	1g	2.d	.
4A	.	.	.
4B	.	.	.
4c	.	4d	.
[2d	2f	2d	.
=37	=37	=37	=37
2d]	1e	1g	0r
2c#	.	.	.
[1d	2d	2f#	.
.	4G	[2g	.
.	4A	.	.
=38	=38	=38	=38
1d]	4B	2g]	2r
.	4c	.	.
.	1d	2f	2.a
1A	.	2e	.
.	.	.	4a
.	2c	[2a	2a
=39	=39	=39	=39
0r	1B	2a]	1dd
.	.	2g#	.
.	2A	4a	2cc#
.	.	4g	.
.	4d	4f	[2dd
.	4e	4e	.
=40	=40	=40	=40
0r	4f	2d	2dd]
.	4g	.	.
.	1a	2A	2cc
.	.	2r	1b
.	2g#	[2e	.
=41	=41	=41	=41
1.A	1a	2e]	2.cc
.	.	2e	.
.	.	.	4b
.	1e	2.a	4cc
.	.	.	4dd
2A	.	.	2ee
.	.	4g	.
=42	=42	=42	=42
1d	0r	1f	1a
2c#	.	2e	2r
2d	.	2f	[2a
=43	=43	=43	=43
2A	2r	2f	2a]
2c	1a	2e	2a
1B-	.	1d	1dd
.	2g	.	.
=44	=44	=44	=44
0r	2a	1r	2cc#
.	2d	.	2dd
.	1f	2r	2a
.	.	[2a	2cc
=45	=45	=45	=45
1r	2d	2a]	1b
.	2e	2g#	.
1D	2.f	2a	1a
.	.	2d	.
.	4e	.	.
=46	=46	=46	=46
2D	2.d	1f	0r
2D	.	.	.
.	4c	.	.
2G	4B	2d	.
.	4A	.	.
2G	2B	2e	.
=47	=47	=47	=47
2F#	2A	2.d	0r
2G	2d	.	.
.	.	4c	.
2D	2d	4B	.
.	.	4A	.
2F	2d	[2d	.
=48	=48	=48	=48
1E	1.g	2d]	1r
.	.	2c#	.
[1D	.	1d	1a
.	4f	.	.
.	4e	.	.
=49	=49	=49	=49
1D]	4f	2r	2a
.	4e	.	.
.	4d	2d	2a
.	4c	.	.
1r	4B-	2d	2dd
.	4A	.	.
.	2B-	2d	2dd
=50	=50	=50	=50
0r	2A	2a	2cc#
.	1d	2a	2dd
.	.	2f	2a
.	2c	2a	2cc
=51	=51	=51	=51
1r	2d	2a	1b
.	2e	2g#	.
[1F	2A	1a	[1cc
.	4A	.	.
.	4B	.	.
=52	=52	=52	=52
2F]	4c	2A	2cc]
.	4d	.	.
2G	1e	2B	2b
2A	.	2c	2a
2B-	2d	2d	2g
=53	=53	=53	=53
0A	2c#	2e	0a
.	1d	2f	.
.	.	1e	.
.	2c#	.	.
=54	=54	=54	=54
2r	2.d	2r	[0a
2.d	.	2.f	.
.	8c	.	.
.	8B	.	.
.	1A	.	.
4d	.	4f	.
2c	.	2e	.
=55	=55	=55	=55
2A	0r	2.f	0a]
2d	.	.	.
.	.	4d	.
2c	.	2e	.
2A	.	2f	.
=56	=56	=56	=56
1B-	2r	1d	2r
.	2.f	.	2.dd
1A	.	1a	.
.	4f	.	4dd
.	2e	.	2cc
=57	=57	=57	=57
0r	2.f	1d	2a
.	.	.	2dd
.	4d	.	.
.	2e	1r	2cc
.	2f#	.	2a
=58	=58	=58	=58
1r	1g	2r	1b-
.	.	2.g	.
2r	2.d	.	1a
.	.	4g	.
[2d	.	2f	.
.	4e	.	.
=59	=59	=59	=59
4d]	2f	2d	0r
4d	.	.	.
2c	2e	2g	.
2.d	1a	2f	.
.	.	2d	.
8c	.	.	.
8B	.	.	.
=60	=60	=60	=60
4A	2r	1e	1r
4B	.	.	.
2c	2.a	.	.
1B-	.	1d	2r
.	4a	.	.
.	2g	.	[2dd
=61	=61	=61	=61
1A	2.a	1e	4dd]
.	.	.	4dd
.	.	.	2cc#
.	4g	.	.
2r	4f	1r	2.dd
.	4e	.	.
2d	[2f	.	.
.	.	.	8cc
.	.	.	8b
=62	=62	=62	=62
2d	2f]	2r	4a
.	.	.	4b
2c	2e	2.a	2cc
2d	1r	.	1b
.	.	4a	.
2e	.	2g#	.
=63	=63	=63	=63
1A	0r	2.a	2a
.	.	.	2.cc
.	.	8g	.
.	.	8f	.
1r	.	4e	.
.	.	4f	4a
.	.	2g	4b
.	.	.	4cc
=64	=64	=64	=64
0r	2r	1f	4dd
.	.	.	4cc
.	2.a	.	4cc
.	.	.	8b
.	.	.	8a
.	.	1e	1b
.	4a	.	.
.	2g#	.	.
=65	=65	=65	=65
2r	2.a	2f	2a
2.A	.	4e	2.cc
.	8g	4d	.
.	8f	.	.
.	4e	4c	.
4A	4f#	4A	4cc
2G	2g	2d	2b
=66	=66	=66	=66
2.A	2f	2c	2.cc
.	1e	2A	.
8G	.	.	4b
8F	.	.	.
4E	.	2.B	4g
4F	.	.	4a
2G	[2d	.	[2b
.	.	4c	.
=67	=67	=67	=67
1F	4d]	1d	4b]
.	4c	.	4a
.	2A	.	1a
1E	1B	1e	.
.	.	.	2g#
=68	=68	=68	=68
0A	0A	0e	0a
=69	=69	=69	=69
0r	0r	0r	1dd
.	.	.	1dd
=70	=70	=70	=70
0r	0r	0r	1a
.	.	.	1cc
=71	=71	=71	=71
0r	0r	1g	1.dd
.	.	1g	.
.	.	.	2ee
=72	=72	=72	=72
0r	0r	1d	2.ff
.	.	.	4ee
.	.	1f	2dd
.	.	.	2cc
=73	=73	=73	=73
1G	0r	2g	2b-
.	.	2a	2a
1G	.	1b-	1g
=74	=74	=74	=74
0D	1d	2a	2f
.	.	2a	4d
.	.	.	4e
.	1d	2a	4f
.	.	.	4g
.	.	4f	4a
.	.	4g	4b
=75	=75	=75	=75
0r	1A	4a	4cc
.	.	4b	4dd
.	.	2.cc	4ee
.	.	.	4ff
.	1c	.	1ee
.	.	4b	.
.	.	4g	.
.	.	4a	.
=76	=76	=76	=76
0r	1.d	2b-	2dd
.	.	1a	2cc
.	.	.	1b-
.	2e	2g	.
=77	=77	=77	=77
2r	2.f	2a	1a
1F	.	1a	.
.	4e	.	.
.	4d	.	1r
.	4c	.	.
2E	[2e	2g	.
=78	=78	=78	=78
2C	2e]	2e	1r
2D	1d	2f	.
1E	.	2.g	2r
.	2c#	.	[2gg
.	.	4a	.
=79	=79	=79	=79
1D	2d	2b-	2gg]
.	1d	2a	2ff
2r	.	2r	2dd
2A	2c	[2a	2ee
=80	=80	=80	=80
2F	2A	2a]	2ff
2G	2B	2g	1ee
1A	2.c	2e	.
.	.	2f	4dd
.	4d	.	4cc
=81	=81	=81	=81
1G	4e	1g	2.b
.	4f	.	.
.	1g	.	.
.	.	.	4cc
1D	.	1a	4dd
.	.	.	4ee
.	2f	.	[2dd
=82	=82	=82	=82
1r	1e	1g	4dd]
.	.	.	4cc
.	.	.	1cc
1G	[1d	2r	.
.	.	[2g	4b
.	.	.	4a
=83	=83	=83	=83
1G	1d]	2g]	1b
.	.	2d	.
2D	1r	2.f	2a
2F	.	.	[2dd
.	.	4f	.
=84	=84	=84	=84
2G	1r	1e	2dd]
2A	.	.	2cc#
2.B-	2r	1d	2.dd
.	2d	.	.
4A	.	.	4cc
=85	=85	=85	=85
2G	1d	0r	2b-
1F	.	.	1a
.	2A	.	.
2E	2c	.	2g
=86	=86	=86	=86
2D	2d	1a	2f
2C#	2e	.	2e
[1D	[1f	1a	1d
=87	=87	=87	=87
2D]	2f]	2d	0r
2E	2e	2g	.
2F	1d	2a	.
2G	.	2b	.
=88	=88	=88	=88
2.A	2c	2.cc	0r
.	1f	.	.
4B	.	4b	.
1c	.	2a	.
.	2e	2g	.
=89	=89	=89	=89
2r	1d	1f	1.a
1d	.	.	.
.	1A	1e	.
2c#	.	.	2a
=90	=90	=90	=90
2.d	2r	2r	1a
.	1d	1f	.
8c	.	.	.
8B-	.	.	.
[1A	.	.	1a
.	2c#	2e	.
=91	=91	=91	=91
1A]	4c#	1e	1ee
.	4d	.	.
.	4e	.	.
.	4c#	.	.
1r	4d	1a	2.ff
.	4e	.	.
.	[2f	.	.
.	.	.	4ee
=92	=92	=92	=92
1r	2f]	2r	2dd
.	2e	2A	2cc
1D	1d	1a	1ff
=93	=93	=93	=93
1A	2r	2.cc	1.ee
.	2A	.	.
.	.	4b	.
2.c	1e	2a	.
.	.	2g	2cc
4B	.	.	.
=94	=94	=94	=94
2A	2.f	2.a	2cc
2F	.	.	2cc
.	4e	4g	.
2B-	2d	4f	2dd
.	.	4d	.
2A	2c	2a	[2ee
=95	=95	=95	=95
2.F	1f	1a	2ee]
.	.	.	1dd
4G	.	.	.
1A	1e	2r	.
.	.	2a	2cc#
=96	=96	=96	=96
[0D	1d	1a	2dd
.	.	.	2dd
.	2r	2d	1dd
.	2d	[2f	.
=97	=97	=97	=97
1D]	1d	4f]	1.a
.	.	4e	.
.	.	4f	.
.	.	4d	.
1r	2A	1e	.
.	2c	.	2a
=98	=98	=98	=98
0r	2d	2f	2b
.	2e	2g	2cc
.	2.f	2.a	2dd
.	.	.	2cc
.	4e	4g	.
=99	=99	=99	=99
0r	2d	2f	4b
.	.	.	4a
.	2c	2e	1a
.	1B	1d	.
.	.	.	2g#
=100	=100	=100	=100
2r	2A	4e	0a
.	.	4d	.
2A	2e	4c	.
.	.	4B	.
2A	1f	1A	.
2F	.	.	.
=101	=101	=101	=101
2G	2e	2r	2r
2A	2c	2a	2ee
2D	1d	2a	1ff
2d	.	2f	.
=102	=102	=102	=102
2c	1e	2g	2ee
4A	.	2a	2cc
4A	.	.	.
1B-	1r	4d	2.dd
.	.	4e	.
.	.	4f	.
.	.	4g	4ee
=103	=103	=103	=103
0A	1r	4a	2ff
.	.	4b	.
.	.	1cc	1ee
.	1e	.	.
.	.	4b	4dd
.	.	4a	4cc
=104	=104	=104	=104
0r	2e	2g#	2b
.	2c	1a	2a
.	2d	.	1b
.	2e	2g#	.
=105	=105	=105	=105
2r	2c#	2a	[0a
1d	2d	1f	.
.	1A	.	.
2c	.	2e	.
=106	=106	=106	=106
2A	1r	2c	0a]
2d	.	2f	.
2c	2r	2e	.
2A	[2a	2c	.
=107	=107	=107	=107
1B-	2a]	1d	2r
.	2g	.	1dd
1A	2f	[1a	.
.	2e	.	2cc
=108	=108	=108	=108
1D	2f	0a]	2a
.	2f	.	2dd
2F	1f	.	2cc
2F	.	.	2a
=109	=109	=109	=109
1G	1d	2r	1b-
.	.	1g	.
1D	2r	.	1a
.	[2d	2f	.
=110	=110	=110	=110
0r	2d]	2d	2a
.	2c	2g	1cc
.	2A	2.f	.
.	2d	.	[2b-
.	.	4d	.
=111	=111	=111	=111
0r	2c	1e	4b-]
.	.	.	4a
.	2A	.	2.a
.	1B-	2d	.
.	.	.	4g
.	.	2d	2g
=112	=112	=112	=112
2r	1A	2d	2f
2A	.	2c	2e
2A	2r	2f	1a
2F	2d	2f	.
=113	=113	=113	=113
2G	2d	1e	2r
2A	2c	.	2a
2D	2f	1d	2a
2d	2f	.	2f
=114	=114	=114	=114
2c	1e	2r	2g
2A	.	1a	2a
2.B-	2r	.	2d
.	2d	2g	[2dd
4B-	.	.	.
=115	=115	=115	=115
1A	1e	2a	2dd]
.	.	4e	2cc
.	.	4f	.
1r	2e	4g	2b
.	.	4e	.
.	2c	[2a	2a
=116	=116	=116	=116
0r	2d	4a]	2b
.	.	8g	.
.	.	8f#	.
.	2e	2g#	2b
.	1A	2a	[1a
.	.	2e	.
=117	=117	=117	=117
1r	1d	2.f	0a]
.	.	8e	.
.	.	8d	.
1A	2e	1c	.
.	2f	.	.
=118	=118	=118	=118
2B	1.g	0r	1r
2c	.	.	.
2.d	.	.	1a
.	2f#	.	.
4c	.	.	.
=119	=119	=119	=119
2B	2g	1r	2b
2A	1a	.	2cc
1B	.	1d	[1dd
.	2g#	.	.
=120	=120	=120	=120
1A	1a	2e	2dd]
.	.	2f	2cc
1G	2d	2.g	1b
.	2e	.	.
.	.	4f	.
=121	=121	=121	=121
0A	2c#	2e	[0a
.	1d	2d	.
.	.	1e	.
.	2c#	.	.
=122	=122	=122	=122
2r	2d	1d	1a_
2d	2f	.	.
2d	2f	1A	1a_
2c#	2e	.	.
=123	=123	=123	=123
2.d	2.f	0r	0a]
8c	8e	.	.
8B	8d	.	.
2A	4f	.	.
.	4e	.	.
2c	[2a	.	.
=124	=124	=124	=124
1B-	2a]	1r	1r
.	2g	.	.
1A	2.a	2r	2r
.	.	2a	2cc
.	8g	.	.
.	8f	.	.
=125	=125	=125	=125
0r	1e	2a	2cc
.	.	2g#	2b
.	2r	2.a	2.cc
.	2f	.	.
.	.	8g	8b
.	.	8f	8a
=126	=126	=126	=126
1r	2g	2e	4cc
.	.	.	4b
.	2c	2g	2.ee
2r	2.d	1f	.
.	.	.	4dd
2d	.	.	2dd
.	4d	.	.
=127	=127	=127	=127
2d	1A	1e	2.ee
2c#	.	.	.
.	.	.	4ee
1d	1f	1r	[1a
=128	=128	=128	=128
2A	2f	2r	1a]
2c	2e	2a	.
1B-	2d	2a	2r
.	2d	2g	2dd
=129	=129	=129	=129
1A	1e	1a	2dd
.	.	.	2cc#
1r	1r	2d	1dd
.	.	2g	.
=130	=130	=130	=130
0r	2r	2.f	2a
.	2a	.	2cc
.	.	4e	.
.	2a	2d	1b
.	2g#	2e	.
=131	=131	=131	=131
0r	1a	2A	4a
.	.	.	4b
.	.	4a	4cc
.	.	4b	4dd
.	2e	4cc	2ee
.	.	4b	.
.	2g	[2b	[2dd
=132	=132	=132	=132
0r	1f	4b]	4dd]
.	.	4a	4cc
.	.	1a	2a
.	2.e	.	1b
.	.	2g#	.
.	4d	.	.
=133	=133	=133	=133
2r	2c#	2a	[0a
2d	2d	2f	.
2d	1A	2f	.
2c#	.	2e	.
=134	=134	=134	=134
1d	1r	1f	0a]
2A	2r	2c	.
2c	2a	2e	.
=135	=135	=135	=135
1B-	2a	1d	2r
.	2g	.	2dd
1A	1a	1e	2dd
.	.	.	2cc#
=136	=136	=136	=136
2r	2d	2f	1dd
2d	1f	4d	.
.	.	4e	.
2d	.	4f	2a
.	.	4g	.
2c#	2e	[2a	2ee
=137	=137	=137	=137
1d	4d	4a]	1ff
.	4e	4g	.
.	4f	4a	.
.	4g	4b	.
2A	1a	2cc	2ff
2c	.	[2a	[2ee
=138	=138	=138	=138
2B-	1d	2a]	4ee]
.	.	.	4dd
2B-	.	2g	1dd
1A	1e	1a	.
.	.	.	2cc#
=139	=139	=139	=139
0D	0d	0f#	0dd
==	==	==	==
*-	*-	*-	*-
!!!CDT: 1525/^1526/-1594/2/2
!!!OCY: Italia
!!!AGN: Mass (Parody)
!!!AST: renaissance, vocal
!!!ASW: Motet 1532 (Lupus Hellinck)
!!!PWK: Masses, Book 5
!!!RNB: Cadence finals: A
!!!YOR: Le Opere Complete, v. 15, p. 45
!!!YOO: Rome, Italy: Fratelli Scalera
!!!END: 1992//
!!!EED: John Miller
!!!YEC: Copyright 2000, John Miller
!!!YEN: United States of America
!!!YEM: Rights to all derivative electronic formats reserved.
!!!YEM: Refer to licensing agreement for further details.
!!!YEM: This file must be accompanied by the licensing agreement.
!!!YEM: A copy of the licensing agreement may be found at http://www.music-cog.ohio-state.edu/HumdrumDatabases/Palestrina/license.txt
!!!EMD: converted to Humdrum by Bret Aarden
